assets/images/svg/bourbon.svg

<?xml version="1.0" encoding="UTF-8" standalone="no"?>
<svg width="256px" height="252px" viewBox="0 0 256 252" version="1.1" xmlns="http://www.w3.org/2000/svg" xmlns:xlink="http://www.w3.org/1999/xlink" preserveAspectRatio="xMidYMid">
    <defs>
        <linearGradient x1="46.6458496%" y1="-2.08864266%" x2="57.3625907%" y2="137.781163%" id="linearGradient-1">
            <stop stop-color="#FF992E" offset="0%"></stop>
            <stop stop-color="#FF4C2E" offset="63.5%"></stop>
            <stop stop-color="#E3302E" offset="100%"></stop>
        </linearGradient>
    </defs>
	<g>
		<path d="M51.5348709,251.616129 C36.4950545,251.616129 23.7864096,240.03547 21.6808353,225.29645 C21.4552381,223.190876 0.625092369,34.7419759 0.625092369,32.6364016 C0.399495123,32.110008 0.0986987952,31.5836145 0.0986987952,31.0572209 L0.148831519,24.740498 C0.148831519,19.4765622 2.20427309,14.2126265 6.41542169,11.0542651 C9.9247122,6.31672289 17.9960803,0 128.012337,0 C237.777931,0 245.924498,6.31672289 249.609253,11.0542651 C253.319074,14.7390201 255.399582,19.4765622 255.399582,25.2668916 L255.324383,30.5308273 C255.324383,31.5836145 255.399582,32.110008 254.873189,33.1627952 L232.513995,225.29645 C232.513995,225.822843 232.238265,226.349237 232.238265,226.875631 C229.506032,241.088257 216.972851,251.616129 202.760225,251.616129 L51.5348709,251.616129 L51.5348709,251.616129 Z" fill="#E5D1BF"></path>
		<path d="M247.553809,24.9510554 C247.553809,21.2663004 246.074894,18.107939 243.96932,16.0023647 C238.52992,9.68564177 188.697994,7.58006747 127.63634,7.58006747 C66.8253484,7.58006747 17.0936891,9.15924819 11.3033598,15.4759711 C9.17271911,18.107939 7.61860474,20.7399068 7.61860474,24.4246618 L7.66873747,30.2149912 C7.66873747,30.7413847 7.61860474,31.2677783 8.14499832,31.7941719 C7.91940107,32.3205655 29.2007413,223.927827 29.2007413,223.927827 C30.7297893,234.982092 40.2550063,243.404389 51.3092714,243.404389 L202.43436,243.404389 C213.964886,243.404389 223.43997,234.982092 224.492757,223.927827 L224.743421,223.927827 L247.303145,31.7941719 L247.303145,30.2149912 L247.303145,24.9510554 L247.553809,24.9510554 L247.553809,24.9510554 Z" fill="#FEF9EC"></path>
		<ellipse fill="#E5D1BF" cx="127.109946" cy="23.3718747" rx="105.805108" ry="5.79032932"></ellipse>
		<path d="M213.964886,205.504051 C213.714223,212.347168 208.70095,217.611104 201.857834,217.611104 L52.2868595,217.611104 C45.7696057,217.611104 40.7813999,212.347168 40.2550063,205.504051 C39.2523519,187.60667 32.8854963,133.914525 32.8854963,133.914525 C32.7350981,129.176983 34.9910706,126.545015 40.2550063,126.545015 L213.964886,126.545015 C218.727494,126.545015 221.334396,129.176983 221.334396,133.914525 C221.484794,133.914525 214.491279,187.60667 213.964886,205.504051 L213.964886,205.504051 L213.964886,205.504051 Z" fill="url(#linearGradient-1)"></path>
		<path d="M97.1556472,136.335936 C94.1476842,140.020691 94.8495422,145.81102 99.0606908,148.969382 L131.747225,174.762667 C135.757843,177.394635 141.69857,176.868241 144.330538,172.657092 L169.848093,139.494297 C172.856057,135.809542 172.229398,130.019213 168.018249,126.860851 L135.256516,101.067566 C131.245898,98.4355984 125.380369,98.961992 122.222008,103.173141 L97.1556472,136.335936 L97.1556472,136.335936 Z" opacity="0.65" fill="#FEF9EC"></path>
		<path d="M65.8226966,112.121831 C60.8094242,112.648225 57.4755984,117.385767 58.001992,122.123309 L63.3160604,163.708402 C64.0680515,168.972337 68.5298635,172.130699 73.7937992,171.604305 L114.7021,166.340369 C119.715372,165.287582 123.274795,161.076434 122.222008,155.812498 L117.208736,114.227406 C116.456745,109.489863 111.694137,105.805108 106.956594,106.857896 L65.8226966,112.121831 L65.8226966,112.121831 Z" opacity="0.65" fill="#FEF9EC"></path>
	</g>
</svg>

<svg width="256" height="252" viewBox="0 0 256 252" xmlns="http://www.w3.org/2000/svg" preserveAspectRatio="xMidYMid"><defs><linearGradient x1="46.646%" y1="-2.089%" x2="57.363%" y2="137.781%" id="a"><stop stop-color="#FF992E" offset="0%"/><stop stop-color="#FF4C2E" offset="63.5%"/><stop stop-color="#E3302E" offset="100%"/></linearGradient></defs><path d="M51.535 251.616c-15.04 0-27.75-11.58-29.854-26.32C21.456 223.19.626 34.742.626 32.636.4 32.11.1 31.584.1 31.056l.05-6.316c0-5.263 2.054-10.527 6.265-13.686C9.925 6.317 17.995 0 128.012 0 237.778 0 245.924 6.317 249.61 11.054c3.71 3.685 5.79 8.423 5.79 14.213l-.076 5.264c0 1.054.076 1.58-.45 2.633l-22.36 192.133c0 .527-.276 1.053-.276 1.58-2.732 14.212-15.265 24.74-29.478 24.74H51.535z" fill="#E5D1BF"/><path d="M247.554 24.95c0-3.684-1.48-6.842-3.585-8.948-5.44-6.316-55.272-8.422-116.334-8.422-60.81 0-110.542 1.58-116.333 7.896-2.13 2.632-3.684 5.264-3.684 8.95l.05 5.79c0 .525-.05 1.052.475 1.578C7.92 32.32 29.2 223.928 29.2 223.928c1.53 11.054 11.055 19.476 22.11 19.476h151.124c11.53 0 21.006-8.422 22.06-19.476h.25l22.56-192.134V24.95h.25z" fill="#FEF9EC"/><ellipse fill="#E5D1BF" cx="127.11" cy="23.372" rx="105.805" ry="5.79"/><path d="M213.965 205.504c-.25 6.843-5.264 12.107-12.107 12.107H52.288c-6.518 0-11.507-5.263-12.033-12.106-1.003-17.897-7.37-71.59-7.37-71.59-.15-4.737 2.106-7.37 7.37-7.37h173.71c4.762 0 7.37 2.633 7.37 7.37.15 0-6.844 53.693-7.37 71.59z" fill="url(#a)"/><path d="M97.156 136.336c-3.008 3.685-2.306 9.475 1.905 12.633l32.687 25.793c4.01 2.632 9.952 2.105 12.584-2.106l25.518-33.163c3.008-3.684 2.38-9.475-1.83-12.633l-32.76-25.792c-4.012-2.632-9.878-2.106-13.036 2.105l-25.066 33.163z" opacity=".65" fill="#FEF9EC"/><path d="M65.823 112.122c-5.014.526-8.347 5.264-7.82 10l5.313 41.586c.752 5.264 5.214 8.423 10.478 7.896l40.908-5.264c5.013-1.052 8.573-5.264 7.52-10.528l-5.013-41.585c-.753-4.737-5.516-8.422-10.253-7.37l-41.134 5.265z" opacity=".65" fill="#FEF9EC"/></svg>
